svgs/fancade.svg

<svg width="192" height="192" viewBox="0 0 192 192" fill="none" xmlns="http://www.w3.org/2000/svg">
<rect width="192" height="192" fill="#1E1E1E"/>
<g clip-path="url(#clip0_0_1)">
<path d="M22 170L170 120.105" stroke="black" stroke-width="12" stroke-linecap="round"/>
<path d="M64.7478 137.479C69.0111 128.955 65.5565 118.588 57.0318 114.325C48.5072 110.062 38.1405 113.516 33.8772 122.041C29.614 130.565 33.0685 140.932 41.5932 145.195" stroke="black" stroke-width="12" stroke-linecap="round"/>
<path d="M86.577 130.203C90.5263 122.306 87.8526 112.828 80.6606 108.086" stroke="black" stroke-width="12" stroke-linecap="round"/>
<path d="M135.433 113.571C139.696 105.047 136.241 94.68 127.717 90.4167C119.192 86.1535 108.825 89.608 104.562 98.1327C100.299 106.657 103.753 117.024 112.278 121.287" stroke="black" stroke-width="12" stroke-linecap="round"/>
<path d="M157.262 106.295C160.082 100.655 159.525 94.2089 156.356 89.2574" stroke="black" stroke-width="12" stroke-linecap="round"/>
<path d="M90.7745 67.5125L102.911 70.041" stroke="black" stroke-width="10" stroke-linecap="round"/>
<path d="M154.492 71.5581L124.389 65.0262V53.5919L62.0201 39.5589L56.8227 66.0657L70.5467 69.0296L60.9385 115.048" stroke="black" stroke-width="12" stroke-linecap="round" stroke-linejoin="round"/>
<path d="M64.6199 22L78.1332 25.1185" stroke="black" stroke-width="12" stroke-linecap="round" stroke-linejoin="round"/>
</g>
<defs>
<clipPath id="clip0_0_1">
<rect width="160" height="160" fill="white" transform="translate(16 16)"/>
</clipPath>
</defs>
</svg>

<svg xmlns="http://www.w3.org/2000/svg" width="192" height="192" fill="none" viewBox="0 0 192 192"><g stroke="#000" stroke-linecap="round" clip-path="url(#a)"><path stroke-width="12" d="m22 170 148-49.895M64.748 137.479c4.263-8.524.808-18.891-7.716-23.154-8.525-4.263-18.891-.809-23.155 7.716-4.263 8.524-.809 18.891 7.716 23.154m44.984-14.992c3.95-7.897 1.276-17.375-5.916-22.117m54.772 5.485c4.263-8.524.808-18.891-7.716-23.154-8.525-4.264-18.892-.809-23.155 7.716-4.263 8.524-.809 18.891 7.716 23.154m44.984-14.992c2.82-5.64 2.263-12.086-.906-17.038"/><path stroke-width="10" d="m90.775 67.513 12.136 2.528"/><path stroke-linejoin="round" stroke-width="12" d="m154.492 71.558-30.103-6.532V53.592L62.02 39.559l-5.197 26.507 13.724 2.964-9.608 46.018M64.62 22l13.513 3.119"/></g><defs><clipPath id="a"><path fill="#fff" d="M16 16h160v160H16z"/></clipPath></defs></svg>
